frontend/public/svg/finance/trend-down.svg

<svg width="154" height="76" viewBox="0 0 154 76" fill="none" xmlns="http://www.w3.org/2000/svg">
<g clip-path="url(#clip0)">
<path d="M4.65676 11.2539C10.0794 16.2926 16.5016 22.2351 23.025 28.1113C27.8563 32.4635 32.7886 36.8656 37.5589 41.1226C42.5897 45.6126 47.7926 50.2555 52.8851 54.8472C57.0154 58.5732 59.6363 58.5961 63.6669 54.9384C69.4006 49.7375 75.1928 44.4121 80.7973 39.2619C83.5289 36.7507 86.2606 34.2406 88.9943 31.7316C89.1846 31.5613 89.3828 31.401 89.5896 31.2513L134.312 65.7397H134.19C130.872 65.6124 127.553 65.4812 124.236 65.346C119.142 65.1426 114.047 64.9455 108.951 64.7552L108.656 64.7448C105.541 64.6326 102.321 64.5157 99.1518 64.6516C98.6687 64.6596 98.1922 64.763 97.7492 64.9558C97.3061 65.1488 96.9058 65.4273 96.5704 65.7755C96.2356 66.1235 95.9731 66.5344 95.7979 66.9847C95.622 67.4349 95.5373 67.9147 95.5478 68.3978C95.4487 70.4528 96.7948 71.8914 99.0553 72.154C100.45 72.3148 101.844 72.4821 103.237 72.6534C108.016 73.2337 112.957 73.8349 117.845 74.0974C124.613 74.4669 131.5 74.6284 138.162 74.7839C140.708 74.8443 143.256 74.908 145.803 74.9749C145.946 74.9789 146.086 74.9808 146.224 74.9808C148.754 74.9808 150.588 74.3205 151.678 73.0164C152.805 71.6689 153.103 69.6789 152.566 67.1035C149.956 54.5979 147.225 41.7645 144.452 28.9593C144.143 27.4591 143.567 26.0264 142.752 24.7292C142.087 23.7888 141.146 23.0783 140.059 22.6958C138.972 22.3132 137.794 22.2774 136.686 22.5934C135.578 22.9093 134.595 23.5614 133.874 24.4597C133.153 25.3579 132.728 26.4579 132.658 27.6079C132.63 28.7958 132.783 29.9812 133.114 31.1226C134.048 34.6764 134.993 38.2274 135.951 41.7756C136.913 45.3635 137.869 48.9528 138.818 52.5435C139.035 53.4497 139.203 54.3668 139.324 55.2909C139.337 55.3828 139.352 55.4766 139.366 55.5711C139.017 55.3434 138.741 55.1597 138.483 54.968C135.985 53.1088 133.483 51.2542 130.977 49.4042C124.835 44.8623 118.484 40.1668 112.329 35.4327C108.78 32.7016 105.265 29.7883 101.867 26.9765C99.5698 25.0732 97.1972 23.1087 94.8298 21.2126C91.0479 18.1829 88.5289 18.3318 84.8534 21.7999C78.0393 28.232 71.0362 34.693 64.264 40.9426L60.1818 44.7108C59.7114 45.1189 59.2092 45.4886 58.68 45.8166C58.5527 45.9 58.4253 45.9834 58.2979 46.0693C56.7201 44.7024 55.1517 43.348 53.5927 42.0059C49.7709 38.7111 46.1611 35.5988 42.5269 32.3578C38.814 29.0499 35.0615 25.6631 31.4346 22.3814C26.4615 17.8874 21.3185 13.2414 16.1997 8.73625C13.3239 6.29646 10.3202 4.01144 7.20137 1.89118L6.49854 1.39443C5.72801 0.809848 4.76406 0.540087 3.80205 0.64003C2.84004 0.739973 1.95193 1.20218 1.31803 1.93268C0.646942 2.61365 0.245634 3.51488 0.188663 4.46926C0.131693 5.42363 0.422817 6.36635 1.00813 7.12231C2.07349 8.62572 3.2967 10.0108 4.65676 11.2539Z" fill="black"/>
</g>
<defs>
<clipPath id="clip0">
<rect width="152.927" height="74.8225" fill="white" transform="translate(0.143555 0.178711)"/>
</clipPath>
</defs>
</svg>

<svg xmlns="http://www.w3.org/2000/svg" width="154" height="76" fill="none" viewBox="0 0 154 76"><g clip-path="url(#a)"><path fill="#000" d="M4.657 11.254c5.422 5.039 11.845 10.981 18.368 16.857 4.831 4.353 9.764 8.755 14.534 13.012 5.03 4.49 10.234 9.133 15.326 13.724 4.13 3.726 6.751 3.75 10.782.091 5.734-5.2 11.526-10.526 17.13-15.676q4.098-3.767 8.197-7.53.285-.256.596-.48l44.722 34.488h-.122a4170 4170 0 0 1-9.954-.394q-7.641-.305-15.285-.59l-.295-.011c-3.115-.112-6.335-.23-9.504-.093a3.666 3.666 0 0 0-3.604 3.746c-.1 2.055 1.247 3.493 3.507 3.756q2.093.241 4.182.5c4.779.58 9.72 1.18 14.608 1.443 6.768.37 13.655.531 20.317.687q3.82.09 7.641.19.214.007.421.007c2.53 0 4.364-.66 5.454-1.965 1.127-1.347 1.425-3.337.888-5.913a5221 5221 0 0 0-8.114-38.144 12.8 12.8 0 0 0-1.7-4.23 5.56 5.56 0 0 0-6.066-2.136 5.56 5.56 0 0 0-4.028 5.015 11.6 11.6 0 0 0 .456 3.515q1.4 5.33 2.837 10.653 1.443 5.381 2.867 10.767.325 1.361.506 2.748l.042.28a18 18 0 0 1-.883-.603q-3.747-2.79-7.506-5.564c-6.142-4.542-12.493-9.237-18.648-13.971-3.549-2.731-7.064-5.645-10.462-8.456a551 551 0 0 0-7.037-5.764c-3.782-3.03-6.301-2.881-9.977.587-6.814 6.432-13.817 12.893-20.589 19.143l-4.082 3.768q-.707.613-1.502 1.106-.191.124-.382.252a1988 1988 0 0 0-4.705-4.063c-3.822-3.295-7.432-6.407-11.066-9.648a1951 1951 0 0 1-11.092-9.977c-4.973-4.494-10.116-9.14-15.235-13.645a106 106 0 0 0-9-6.845l-.7-.497a3.81 3.81 0 0 0-5.181.539 3.95 3.95 0 0 0-.31 5.19 26 26 0 0 0 3.649 4.13"/></g><defs><clipPath id="a"><path fill="#fff" d="M.144.179H153.07v74.823H.144z"/></clipPath></defs></svg>
